html/dist/img/svg/eye.svg

<svg width="67" height="44" viewBox="0 0 67 44" fill="none" xmlns="http://www.w3.org/2000/svg">
<path d="M65 21.9991C63.8519 24.4496 62.4096 26.7806 60.6856 28.9376C54.0878 37.1922 44.0816 42 33.4996 42C22.9175 42 12.9114 37.1922 6.31357 28.9376C4.58993 26.7811 3.14791 24.4507 2 22.0009C3.14805 19.5504 4.59035 17.2194 6.31443 15.0624C12.9122 6.80779 22.9184 2 33.5004 2C44.0825 2 54.0886 6.80779 60.6864 15.0624C62.4101 17.2189 63.8521 19.5493 65 21.9991Z" stroke="white" stroke-width="3" stroke-linecap="round" stroke-linejoin="round"/>
<path d="M28.7357 31.8708C31.7464 33.3175 35.2536 33.3174 38.2643 31.8708C41.2751 30.4242 43.4618 27.6884 44.2054 24.4379C44.949 21.1874 44.1686 17.7759 42.085 15.1692C40.0015 12.5625 36.8417 11.0442 33.5 11.0442C30.1583 11.0442 26.9985 12.5625 24.9149 15.1692C22.8314 17.7759 22.051 21.1874 22.7946 24.4379C23.5382 27.6884 25.7249 30.4242 28.7357 31.8708Z" stroke="white" stroke-width="3" stroke-linecap="round" stroke-linejoin="round"/>
</svg>

<svg width="67" height="44" viewBox="0 0 67 44" fill="none" xmlns="http://www.w3.org/2000/svg"><path d="M65 22a34.67 34.67 0 01-4.314 6.938A34.802 34.802 0 0133.5 42 34.802 34.802 0 016.314 28.938 34.668 34.668 0 012 22a34.665 34.665 0 014.314-6.939A34.802 34.802 0 0133.5 2a34.802 34.802 0 0127.186 13.062A34.664 34.664 0 0165 22z" stroke="#fff" stroke-width="3" stroke-linecap="round" stroke-linejoin="round"/><path d="M28.736 31.87a11.003 11.003 0 009.528 0 10.96 10.96 0 005.941-7.432 10.937 10.937 0 00-2.12-9.269 10.99 10.99 0 00-8.585-4.125 10.99 10.99 0 00-8.585 4.125 10.937 10.937 0 00-2.12 9.269 10.96 10.96 0 005.94 7.433z" stroke="#fff" stroke-width="3" stroke-linecap="round" stroke-linejoin="round"/></svg>
